X: 36116
T: Schottische From Havero
R: barndance
M: 4/4
K: Dminor
z2|D2DE FGFE|D2 A2 A4|d^cde f2f2|efe^c A2A2|
D2 DE FGFE|D2 A2 A4|d^cde f2f2|e2 ^c2 d2:|
|:a^g|a2 a^g a2 a2|fgfe f2f2|efe^c A2A2|FGFE FED2|
a2a^g a2 a2|fgfe f2 f2|e2e^c Acec|d2d^c d2:|

